SVG_Azure_All/Application Insights Continuous Export.svg

<?xml version="1.0" encoding="UTF-8" standalone="no"?>
<!-- Generated by Microsoft Visio, SVG Export Application Insights Continuous Export.svg Page-1 -->

<svg
   xmlns:dc="http://purl.org/dc/elements/1.1/"
   xmlns:cc="http://creativecommons.org/ns#"
   xmlns:rdf="http://www.w3.org/1999/02/22-rdf-syntax-ns#"
   xmlns:svg="http://www.w3.org/2000/svg"
   xmlns="http://www.w3.org/2000/svg"
   xmlns:sodipodi="http://sodipodi.sourceforge.net/DTD/sodipodi-0.dtd"
   xmlns:inkscape="http://www.inkscape.org/namespaces/inkscape"
   width="0.75699133in"
   height="0.74791551in"
   viewBox="0 0 54.503378 53.850001"
   xml:space="preserve"
   class="st4"
   version="1.1"
   id="svg39"
   sodipodi:docname="Application Insights Continuous Export.svg"
   style="font-size:12px;overflow:visible;color-interpolation-filters:sRGB;fill:none;fill-rule:evenodd;stroke-linecap:square;stroke-miterlimit:3"
   inkscape:version="0.92.5 (2060ec1f9f, 2020-04-08)"><metadata
   id="metadata45"><rdf:RDF><cc:Work
       rdf:about=""><dc:format>image/svg+xml</dc:format><dc:type
         rdf:resource="http://purl.org/dc/dcmitype/StillImage" /></cc:Work></rdf:RDF></metadata><defs
   id="defs43" /><sodipodi:namedview
   pagecolor="#ffffff"
   bordercolor="#666666"
   borderopacity="1"
   objecttolerance="10"
   gridtolerance="10"
   guidetolerance="10"
   inkscape:pageopacity="0"
   inkscape:pageshadow="2"
   inkscape:window-width="640"
   inkscape:window-height="480"
   id="namedview41"
   showgrid="false"
   inkscape:zoom="1.7679873"
   inkscape:cx="36.337464"
   inkscape:cy="21.383033"
   inkscape:window-x="0"
   inkscape:window-y="0"
   inkscape:window-maximized="0"
   inkscape:current-layer="svg39" />
	<style
   type="text/css"
   id="style2">
	<![CDATA[
		.st1 {fill:#0072c6;stroke:none;stroke-linecap:butt;stroke-width:12.24}
		.st2 {fill:#59b4d9;stroke:none;stroke-linecap:butt;stroke-width:12.24}
		.st3 {fill:#3999c6;stroke:none;stroke-linecap:butt;stroke-width:12.24}
		.st4 {fill:none;fill-rule:evenodd;font-size:12px;overflow:visible;stroke-linecap:square;stroke-miterlimit:3}
	]]>
	</style>

	<g
   id="g37"
   transform="translate(-12.24072,-12.2443)">
		<title
   id="title4">Page-1</title>
		<g
   id="group9596-1"
   transform="translate(11.1451,-34.0157)">
			<title
   id="title6">Application Insights Continuous Export</title>
			<g
   id="group9597-2">
				<title
   id="title8">Sheet.9597</title>
				<g
   id="shape9598-3">
					<title
   id="title10">Sheet.9598</title>
					<path
   d="m 22.24,95.88 3.05,-4.13 C 17.33,90.02 9.92,83.28 9.16,74.71 8.39,65.37 14.39,57.01 23.22,54.62 l 3.27,-4.24 -4.14,-3.8 C 9.27,49.62 0,61.78 1.2,75.47 2.29,88.5 12.65,98.59 25.18,100.11 Z m 10.25,-49.62 2.62,4.23 -3.6,3.91 c 7.96,1.85 15.37,8.58 16.13,17.05 0.77,9.23 -5.12,17.59 -13.84,20.09 l -2.51,4.66 3.82,3.26 C 47.86,96.2 56.69,84.26 55.49,70.8 54.4,57.98 44.59,48.1 32.49,46.26 Z"
   class="st1"
   id="path12"
   inkscape:connector-curvature="0"
   style="fill:#0072c6;stroke:none;stroke-width:12.23999977;stroke-linecap:butt" />
				</g>
				<g
   id="shape9599-5"
   transform="translate(14.9364,-20.1969)">
					<title
   id="title15">Sheet.9599</title>
					<path
   d="m 0,89.58 h 4.47 v 10.53 H 0 Z"
   class="st1"
   id="path17"
   inkscape:connector-curvature="0"
   style="fill:#0072c6;stroke:none;stroke-width:12.23999977;stroke-linecap:butt" />
				</g>
				<g
   id="shape9600-7"
   transform="translate(22.3501,-20.1969)">
					<title
   id="title20">Sheet.9600</title>
					<rect
   x="0"
   y="83.6091"
   width="4.4700198"
   height="16.504999"
   class="st2"
   id="rect22"
   style="fill:#59b4d9;stroke:none;stroke-width:12.23999977;stroke-linecap:butt" />
				</g>
				<g
   id="shape9601-9"
   transform="translate(29.7638,-20.1969)">
					<title
   id="title25">Sheet.9601</title>
					<rect
   x="0"
   y="91.101402"
   width="4.4700198"
   height="9.0125704"
   class="st3"
   id="rect27"
   style="fill:#3999c6;stroke:none;stroke-width:12.23999977;stroke-linecap:butt" />
				</g>
				<g
   id="shape9602-11"
   transform="translate(37.2865,-20.3054)">
					<title
   id="title30">Sheet.9602</title>
					<rect
   x="0"
   y="86.649399"
   width="4.4700198"
   height="13.4646"
   class="st1"
   id="rect32"
   style="fill:#0072c6;stroke:none;stroke-width:12.23999977;stroke-linecap:butt" />
				</g>
			</g>
		</g>
	</g>
</svg>

<?xml version="1.0" encoding="UTF-8" standalone="no"?>
<!DOCTYPE svg PUBLIC "-//W3C//DTD SVG 1.1//EN" "http://www.w3.org/Graphics/SVG/1.1/DTD/svg11.dtd">
<!-- Generated by Microsoft Visio, SVG Export Application Insights Continuous Export.svg Page-1 -->
<svg xmlns="http://www.w3.org/2000/svg" xmlns:xlink="http://www.w3.org/1999/xlink" xmlns:ev="http://www.w3.org/2001/xml-events"
		width="1.09705in" height="1.39047in" viewBox="0 0 78.9876 100.114" xml:space="preserve" color-interpolation-filters="sRGB"
		class="st4">
	<style type="text/css">
	<![CDATA[
		.st1 {fill:#0072c6;stroke:none;stroke-linecap:butt;stroke-width:12.24}
		.st2 {fill:#59b4d9;stroke:none;stroke-linecap:butt;stroke-width:12.24}
		.st3 {fill:#3999c6;stroke:none;stroke-linecap:butt;stroke-width:12.24}
		.st4 {fill:none;fill-rule:evenodd;font-size:12px;overflow:visible;stroke-linecap:square;stroke-miterlimit:3}
	]]>
	</style>

	<g>
		<title>Page-1</title>
		<g id="group9391-1" transform="translate(11.1451,-34.0157)">
			<title>Application Insights Continuous Export</title>
			<g id="group9392-2">
				<title>Sheet.9392</title>
				<g id="shape9393-3">
					<title>Sheet.9393</title>
					<path d="M22.24 95.88 L25.29 91.75 C17.33 90.02 9.92 83.28 9.16 74.71 C8.39 65.37 14.39 57.01 23.22 54.62 L26.49
								 50.38 L22.35 46.58 C9.27 49.62 0 61.78 1.2 75.47 C2.29 88.5 12.65 98.59 25.18 100.11 L22.24 95.88
								 ZM32.49 46.26 L35.11 50.49 L31.51 54.4 C39.47 56.25 46.88 62.98 47.64 71.45 C48.41 80.68 42.52 89.04
								 33.8 91.54 L31.29 96.2 L35.11 99.46 C47.86 96.2 56.69 84.26 55.49 70.8 C54.4 57.98 44.59 48.1 32.49
								 46.26 Z" class="st1"/>
				</g>
				<g id="shape9394-5" transform="translate(14.9364,-20.1969)">
					<title>Sheet.9394</title>
					<path d="M0 89.58 L4.47 89.58 L4.47 100.11 L0 100.11 L0 89.58 Z" class="st1"/>
				</g>
				<g id="shape9395-7" transform="translate(22.3501,-20.1969)">
					<title>Sheet.9395</title>
					<rect x="0" y="83.6091" width="4.47002" height="16.505" class="st2"/>
				</g>
				<g id="shape9396-9" transform="translate(29.7638,-20.1969)">
					<title>Sheet.9396</title>
					<rect x="0" y="91.1014" width="4.47002" height="9.01257" class="st3"/>
				</g>
				<g id="shape9397-11" transform="translate(37.2865,-20.3054)">
					<title>Sheet.9397</title>
					<rect x="0" y="86.6494" width="4.47002" height="13.4646" class="st1"/>
				</g>
			</g>
		</g>
	</g>
</svg>
